gama.ui.shared/icons_svg/light/editor/command.navigation.svg

<svg height="25" viewBox="-741.774 -3261.805 25 25" width="25" xmlns="http://www.w3.org/2000/svg"><g fill="none"><path d="m-721.1141-3237.3047h-16.32c-2.1208 0-3.84-1.7193-3.84-3.84v-16.32c0-2.1207 1.7192-3.84 3.84-3.84h16.32c2.1208 0 3.84 1.7193 3.84 3.84v16.32c0 2.1207-1.7192 3.84-3.84 3.84z" fill="#fff"/><path d="m-721.1141-3237.3047h-16.32c-2.1208 0-3.84-1.7193-3.84-3.84v-16.32c0-2.1207 1.7192-3.84 3.84-3.84h16.32c2.1208 0 3.84 1.7193 3.84 3.84v16.32c0 2.1207-1.7192 3.84-3.84 3.84z" stroke="#000" stroke-linecap="round" stroke-linejoin="round" stroke-width=".25"/><path d="m-727.6994-3247.9643c-.0195.0519-.0501.1007-.0919.1423-.0418.042-.0905.0726-.1425.092l-3.9918 1.5967c-.3265.1306-.6505-.1934-.5199-.5199l1.5967-3.9918c.0194-.052.05005-.1007.0918-.1425.0418-.0418.0906-.0725.1425-.0918l3.9918-1.5967c.32655-.1307.6506.1934.52.52zm-2.0629-2.3943 1.5421 1.5421 1.0281-2.5701zm.9764 2.1078-1.5421-1.5422-1.0281 2.5703zm-.4882 6.9461c-4.4183 0-8-3.5817-8-8s3.5817-8 8-8 8 3.5817 8 8-3.5817 8-8 8zm0-.8c3.9764 0 7.2-3.2235 7.2-7.2 0-3.9763-3.2236-7.2-7.2-7.2-3.9765 0-7.2 3.2237-7.2 7.2 0 3.9765 3.2235 7.2 7.2 7.2z" fill="#5c76a1"/></g></svg>

<?xml version="1.0" encoding="UTF-8" standalone="no"?>
<!DOCTYPE svg PUBLIC "-//W3C//DTD SVG 1.1//EN" "http://www.w3.org/Graphics/SVG/1.1/DTD/svg11.dtd">
<svg xmlns="http://www.w3.org/2000/svg" xmlns:dc="http://purl.org/dc/elements/1.1/" version="1.1" xmlns:xl="http://www.w3.org/1999/xlink" viewBox="-741.7741 -3261.8047 25 25" width="25" height="25">
  <defs/>
  <g id="SOURCES" stroke-dasharray="none" stroke-opacity="1" stroke="none" fill="none" fill-opacity="1">
    <title>SOURCES</title>
    <g id="SOURCES_Light">
      <title>Light</title>
      <g id="Graphic_12429">
        <title>views/view.other</title>
        <path d="M -721.1141 -3237.3047 L -737.4341 -3237.3047 C -739.5549 -3237.3047 -741.2741 -3239.024 -741.2741 -3241.1447 L -741.2741 -3257.4647 C -741.2741 -3259.5854 -739.5549 -3261.3047 -737.4341 -3261.3047 L -721.1141 -3261.3047 C -718.9933 -3261.3047 -717.2741 -3259.5854 -717.2741 -3257.4647 L -717.2741 -3241.1447 C -717.2741 -3239.024 -718.9933 -3237.3047 -721.1141 -3237.3047 Z" fill="white"/>
        <path d="M -721.1141 -3237.3047 L -737.4341 -3237.3047 C -739.5549 -3237.3047 -741.2741 -3239.024 -741.2741 -3241.1447 L -741.2741 -3257.4647 C -741.2741 -3259.5854 -739.5549 -3261.3047 -737.4341 -3261.3047 L -721.1141 -3261.3047 C -718.9933 -3261.3047 -717.2741 -3259.5854 -717.2741 -3257.4647 L -717.2741 -3241.1447 C -717.2741 -3239.024 -718.9933 -3237.3047 -721.1141 -3237.3047 Z" stroke="black" stroke-linecap="round" stroke-linejoin="round" stroke-width=".25"/>
      </g>
      <g id="Graphic_12430">
        <path d="M -727.6994 -3247.9643 C -727.7189 -3247.9124 -727.7495 -3247.8636 -727.7913 -3247.822 C -727.8331 -3247.78 -727.8818 -3247.7494 -727.9338 -3247.73 L -731.9256 -3246.1333 C -732.2521 -3246.0027 -732.5761 -3246.3267 -732.4455 -3246.6532 L -730.8488 -3250.645 C -730.8294 -3250.697 -730.79875 -3250.7457 -730.757 -3250.7875 C -730.7152 -3250.8293 -730.6664 -3250.86 -730.6145 -3250.8793 L -726.6227 -3252.476 C -726.29615 -3252.6067 -725.9721 -3252.2826 -726.1027 -3251.956 L -727.6994 -3247.9643 Z M -729.7623 -3250.3586 L -728.2202 -3248.8165 L -727.1921 -3251.3866 L -729.7623 -3250.3586 Z M -728.7859 -3248.2508 L -730.328 -3249.793 L -731.3561 -3247.2227 L -728.7859 -3248.2508 Z M -729.2741 -3241.3047 C -733.6924 -3241.3047 -737.2741 -3244.8864 -737.2741 -3249.3047 C -737.2741 -3253.723 -733.6924 -3257.3047 -729.2741 -3257.3047 C -724.8558 -3257.3047 -721.2741 -3253.723 -721.2741 -3249.3047 C -721.2741 -3244.8864 -724.8558 -3241.3047 -729.2741 -3241.3047 Z M -729.2741 -3242.1047 C -725.2977 -3242.1047 -722.0741 -3245.3282 -722.0741 -3249.3047 C -722.0741 -3253.281 -725.2977 -3256.5047 -729.2741 -3256.5047 C -733.2506 -3256.5047 -736.4741 -3253.281 -736.4741 -3249.3047 C -736.4741 -3245.3282 -733.2506 -3242.1047 -729.2741 -3242.1047 Z" fill="#5c76a1"/>
      </g>
    </g>
  </g>
</svg>
